X: 1
T: THE WILLOW TREE
S: RKS(MSS)
O: Headington
P: A.A(AB)4
B: Morris Ring
Z: John Chambers 2004-6-20
M: 6/8
L: 1/8
K: G
P: A
 D | G2A B2c | d2g g2B | c2{B}A d2B  | G2F D2D |
     G2A B2c | d2g g2B | c2{B}A d2F  | G3  G  ||
P: B
FG | AAA AGA | B3  G2G | AAA    AGA  | B3  G3D |
     G2A B2c | d2g g2B | cBA    A<dF | G3  G2 ||
